X: 10162
T: NEIL GOW'S STRATHSPEY
R: strathspey
B: "Edinburgh Repository of Music" v.1 p.16 #2
F: http://digital.nls.uk/special-collections-of-printed-music/pageturner.cfm?id=87776133
Z: 2015 John Chambers <jc:trillian.mit.edu>
M: C
L: 1/8
K: A
f |\
e<ca>e fBBf | e<ca>e f2fg |\
a/g/f/e/ ae fBBg | a>fec A2A :|
|: F |\
A<A {AB}c>A BFFG | A<A A<A aefa |\
e>a c>a BFFg | a>f ec A2A :|

%%sep 2 1 500
%%sep 1 1 500

